public/img/partners/khan-academy.svg

<svg width="910" height="148" viewBox="0 0 910 148" fill="none" xmlns="http://www.w3.org/2000/svg">
<g clip-path="url(#clip0_234_44)">
<path fill-rule="evenodd" clip-rule="evenodd" d="M4.18 33.35C1.2 34.85 0 37.26 0 40.55V107.67C0 110.96 1.2 113.07 4.18 114.87L60.82 147.13C62.1186 147.776 63.5494 148.113 65 148.113C66.4506 148.113 67.8814 147.776 69.18 147.13L125.82 114.87C128.82 113.07 130 110.96 130 107.67V40.55C130 36.66 128.19 34.55 125.82 33.35L69.18 1.09004C67.8814 0.443612 66.4506 0.107178 65 0.107178C63.5494 0.107178 62.1186 0.443612 60.82 1.09004L4.18 33.35ZM114.73 60.0499C87.85 60.1899 66.09 82.7599 66.09 110.6V111.78H64V110.6C64 82.7599 42.2 60.1899 15.27 60.0499C15.0893 61.8175 14.9992 63.5932 15 65.3699C15 87.1399 28.33 105.7 47 112.82C52.7578 114.967 58.8549 116.061 65 116.05C71.1437 116.045 77.2379 114.951 83 112.82C101.66 105.7 115 87.1399 115 65.3699C115.001 63.5932 114.911 61.8175 114.73 60.0499ZM76.3147 35.9734C82.5631 42.2218 82.5631 52.3524 76.3147 58.6008C70.0663 64.8492 59.9357 64.8492 53.6873 58.6008C47.4389 52.3524 47.4389 42.2218 53.6873 35.9734C59.9357 29.725 70.0663 29.725 76.3147 35.9734Z" fill="#0A2A66"/>
<path d="M166.07 34.3499C166.064 33.9655 166.137 33.5839 166.283 33.2281C166.428 32.8723 166.645 32.5497 166.918 32.2797C167.192 32.0097 167.518 31.7979 167.875 31.657C168.233 31.5161 168.616 31.4491 169 31.4599H179.58C180.344 31.4677 181.075 31.7747 181.615 32.315C182.155 32.8553 182.462 33.5859 182.47 34.3499V66.8199L212.77 32.6599C213.032 32.2958 213.376 31.9978 213.773 31.7896C214.171 31.5813 214.611 31.4684 215.06 31.4599H227.06C227.569 31.4416 228.072 31.5756 228.505 31.8449C228.938 32.1142 229.28 32.5065 229.488 32.9715C229.697 33.4366 229.761 33.9532 229.674 34.4553C229.588 34.9574 229.353 35.4221 229 35.7899L197.58 71.1499L231.25 111.43C231.543 111.825 231.719 112.295 231.759 112.785C231.799 113.276 231.701 113.768 231.477 114.205C231.252 114.643 230.91 115.009 230.488 115.263C230.066 115.516 229.582 115.647 229.09 115.64H216C215.6 115.676 215.196 115.62 214.821 115.474C214.446 115.328 214.111 115.097 213.84 114.8L182.43 76.0799V112.75C182.422 113.514 182.115 114.245 181.575 114.785C181.035 115.325 180.304 115.632 179.54 115.64H169C168.619 115.645 168.241 115.574 167.888 115.431C167.535 115.288 167.214 115.075 166.944 114.805C166.675 114.536 166.462 114.215 166.319 113.862C166.176 113.509 166.105 113.131 166.11 112.75L166.07 34.3499Z" fill="#0A2A66"/>
<path d="M240 34.11C240.045 33.4218 240.338 32.7734 240.826 32.2858C241.313 31.7982 241.962 31.5046 242.65 31.46H252.39C253.083 31.4873 253.74 31.7755 254.23 32.267C254.72 32.7584 255.005 33.4167 255.03 34.11V63.57C257.8 61.16 262.61 58.88 269.22 58.88C286.9 58.88 291.71 71.15 291.71 85.1V113C291.685 113.695 291.398 114.355 290.906 114.846C290.415 115.338 289.755 115.625 289.06 115.65H279.32C278.621 115.642 277.952 115.36 277.458 114.865C276.965 114.369 276.685 113.699 276.68 113V85C276.68 77.31 273.19 72.62 266.58 72.62C259.97 72.62 256.47 76.71 255.03 82.36V113C255.03 114.57 254.31 115.65 252.15 115.65H242.65C241.955 115.625 241.295 115.338 240.804 114.846C240.312 114.355 240.025 113.695 240 113V34.11Z" fill="#0A2A66"/>
<path d="M322.28 80.53C325.907 80.5715 329.512 81.0962 333 82.09C333.24 74.99 331.2 71.63 325.31 71.63C320.038 71.7036 314.791 72.3746 309.67 73.63C307.87 74.23 306.79 72.91 306.55 71.23L305.33 65C305.201 64.6623 305.146 64.3008 305.168 63.9399C305.191 63.579 305.291 63.2273 305.462 62.9085C305.633 62.5898 305.87 62.3115 306.158 62.0926C306.446 61.8738 306.777 61.7194 307.13 61.64C313.305 59.8447 319.699 58.9125 326.13 58.87C343.45 58.87 347.05 67.87 347.05 83.04V113C347.045 113.699 346.765 114.369 346.272 114.865C345.778 115.36 345.11 115.642 344.41 115.65H340.32C339.32 115.65 338.64 115.29 337.91 113.73L336.35 110C334.051 112.263 331.326 114.048 328.332 115.249C325.338 116.451 322.136 117.046 318.91 117C307.85 117 300.15 109.91 300.15 98C300.15 88.1 308.21 80.53 322.28 80.53ZM322.64 105.78C327.57 105.78 331.9 101.93 332.64 99.89V91.71C330.043 90.6258 327.264 90.0455 324.45 90C318.07 90 314.58 93 314.58 97.93C314.58 102.65 317.47 105.78 322.64 105.78Z" fill="#0A2A66"/>
<path d="M359.56 62.73C359.563 62.0297 359.841 61.3587 360.335 60.8625C360.83 60.3664 361.5 60.0852 362.2 60.08H366.77C367.293 60.0297 367.816 60.1744 368.239 60.4864C368.661 60.7983 368.954 61.2555 369.06 61.77L371.06 66.94C373.241 64.3219 375.991 62.2354 379.099 60.8388C382.208 59.4423 385.594 58.7723 389 58.88C406.68 58.88 411.25 70.78 411.25 84.25V113C411.223 113.694 410.935 114.352 410.444 114.844C409.952 115.335 409.294 115.623 408.6 115.65H398.86C398.16 115.642 397.492 115.36 396.998 114.865C396.505 114.369 396.225 113.699 396.22 113V84.25C396.22 77.04 393.33 72.59 386.6 72.59C383.928 72.5241 381.309 73.3351 379.142 74.899C376.974 76.4629 375.379 78.6936 374.6 81.25V113C374.6 115.05 373.76 115.65 371.11 115.65H362.21C361.517 115.623 360.86 115.334 360.37 114.843C359.88 114.352 359.595 113.693 359.57 113L359.56 62.73Z" fill="#0A2A66"/>
<path d="M439.69 112.51L477.09 31.5799C477.256 31.1871 477.534 30.8521 477.89 30.6172C478.246 30.3823 478.664 30.258 479.09 30.2599H480.3C480.731 30.2345 481.159 30.3493 481.52 30.5873C481.88 30.8252 482.154 31.1735 482.3 31.5799L519.3 112.51C519.482 112.843 519.57 113.219 519.557 113.598C519.544 113.977 519.429 114.346 519.225 114.666C519.021 114.986 518.734 115.245 518.396 115.416C518.057 115.587 517.679 115.665 517.3 115.64H506.91C505.11 115.64 504.27 114.92 503.43 113.23L497.53 100.23H461.58L455.69 113.23C455.434 113.947 454.96 114.565 454.334 114.998C453.707 115.43 452.961 115.655 452.2 115.64H441.74C441.358 115.671 440.975 115.599 440.631 115.43C440.287 115.262 439.995 115.004 439.785 114.684C439.575 114.364 439.456 113.993 439.439 113.61C439.422 113.227 439.509 112.847 439.69 112.51ZM491.64 86.9L479.64 60.4399H479.28L467.47 86.9H491.64Z" fill="#0A2A66"/>
<path d="M550.37 58.88C559.03 58.88 565.76 62.61 571.05 68.26C572.25 69.46 571.65 71.03 570.45 72.26L565.4 77.79C564.2 79.11 562.88 78.51 561.79 77.43C559.15 74.9 555.9 72.62 550.73 72.62C542.07 72.62 536.06 79.35 536.06 87.89C536.06 96.43 541.95 103.28 550.61 103.28C556.74 103.28 559.99 99.92 562.39 97.15C562.823 96.6671 563.42 96.3627 564.066 96.2961C564.711 96.2296 565.358 96.4056 565.88 96.79L571.29 101.36C572.62 102.56 573.22 103.88 572.29 105.36C567.6 112.69 560.15 117.02 550.29 117.02C534.05 117.02 520.95 104.64 520.95 87.92C520.91 71.51 533.89 58.88 550.37 58.88Z" fill="#0A2A66"/>
<path d="M601.82 80.53C605.44 80.5733 609.038 81.0979 612.52 82.09C612.76 74.99 610.72 71.63 604.83 71.63C599.558 71.7036 594.311 72.3746 589.19 73.63C587.39 74.23 586.31 72.91 586.07 71.23L584.86 65C584.732 64.6615 584.679 64.2997 584.703 63.9388C584.727 63.5779 584.828 63.2264 585 62.9079C585.172 62.5895 585.409 62.3116 585.697 62.0928C585.986 61.8741 586.317 61.7197 586.67 61.64C592.845 59.8447 599.239 58.9125 605.67 58.87C622.99 58.87 626.59 67.87 626.59 83.04V113C626.585 113.699 626.305 114.369 625.812 114.865C625.318 115.36 624.649 115.642 623.95 115.65H619.86C618.86 115.65 618.17 115.29 617.45 113.73L615.89 110C613.591 112.263 610.866 114.048 607.872 115.249C604.878 116.451 601.676 117.046 598.45 117C587.39 117 579.69 109.91 579.69 98C579.69 88.1 587.75 80.53 601.82 80.53ZM602.18 105.78C607.11 105.78 611.44 101.93 612.18 99.89V91.71C609.586 90.6275 606.81 90.0473 604 90C597.63 90 594.14 93 594.14 97.93C594.12 102.65 597 105.78 602.18 105.78Z" fill="#0A2A66"/>
<path d="M663.56 58.88C668.105 58.9021 672.615 59.6724 676.91 61.16V34.16C676.955 33.4719 677.248 32.8235 677.736 32.3359C678.223 31.8482 678.872 31.5547 679.56 31.51H689.3C689.993 31.5373 690.65 31.8256 691.14 32.317C691.63 32.8085 691.915 33.4668 691.94 34.16V113C691.935 113.699 691.655 114.369 691.162 114.865C690.668 115.36 689.999 115.642 689.3 115.65H684.85C683.52 115.65 682.68 114.57 682.2 113L680.76 108.67C678.509 111.281 675.722 113.377 672.588 114.815C669.454 116.252 666.048 116.997 662.6 117C647.45 117 636 104.7 636 87.86C636 71.63 647 58.88 663.56 58.88ZM676.91 75.72C673.426 73.6313 669.432 72.548 665.37 72.59C656.23 72.59 651.54 80.04 651.54 87.86C651.54 95.68 655.99 103.25 664.64 103.25C671.86 103.25 675.71 98.68 676.91 95.56V75.72Z" fill="#0A2A66"/>
<path d="M729.58 58.88C744.01 58.88 755.07 69.58 755.07 84.61C755.07 85.46 754.95 87.38 754.83 88.22C754.76 88.8858 754.457 89.5054 753.974 89.9686C753.49 90.4318 752.858 90.7087 752.19 90.75H716.59C716.71 97.6 722.36 103.61 730.42 103.61C734.745 103.688 738.961 102.244 742.33 99.53C743.65 98.44 745.09 98.32 745.93 99.53L750.62 105.78C750.874 106.016 751.072 106.305 751.2 106.628C751.328 106.95 751.383 107.296 751.36 107.642C751.337 107.988 751.237 108.324 751.067 108.627C750.898 108.929 750.663 109.19 750.38 109.39C744.632 114.342 737.286 117.045 729.7 117C713.1 117 701.56 103.77 701.56 87.9C701.56 72.23 713.1 58.88 729.58 58.88ZM739.92 80.88C739.68 75.46 735.35 71.26 729.22 71.26C722.48 71.26 718.16 75.34 717.43 80.88H739.92Z" fill="#0A2A66"/>
<path d="M764 62.7299C764.003 62.0296 764.281 61.3586 764.776 60.8625C765.27 60.3664 765.94 60.0852 766.64 60.0799H770.97C771.476 60.0287 771.983 60.1583 772.402 60.4457C772.822 60.7331 773.125 61.1597 773.26 61.6499L775.26 66.9399C777.279 64.3746 779.864 62.3119 782.813 60.9134C785.763 59.515 788.996 58.819 792.26 58.8799C800.32 58.8799 804.26 61.7699 808.85 67.2999C811.26 64.7699 816.79 58.8799 826.77 58.8799C844.57 58.8799 848.77 70.1799 848.77 84.6099V113C848.764 113.356 848.687 113.708 848.544 114.034C848.401 114.361 848.194 114.655 847.937 114.902C847.679 115.148 847.376 115.341 847.043 115.469C846.711 115.598 846.356 115.659 846 115.65H836.38C835.681 115.642 835.012 115.36 834.518 114.864C834.025 114.369 833.745 113.699 833.74 113V84.2499C833.74 77.0399 831.09 72.5899 824.12 72.5899C816.06 72.5899 813.77 78.3599 813.77 78.3599C813.77 78.3599 814.01 81.1299 814.01 83.6499V113C813.985 113.693 813.7 114.351 813.21 114.843C812.72 115.334 812.063 115.623 811.37 115.65H801.51C801.16 115.658 800.811 115.595 800.486 115.465C800.161 115.335 799.866 115.14 799.618 114.892C799.37 114.644 799.175 114.349 799.045 114.024C798.915 113.698 798.852 113.35 798.86 113V84.2499C798.86 77.0399 796.86 72.5899 789.72 72.5899C782.87 72.5899 780.34 77.3999 779.02 81.2499V113C778.995 113.693 778.71 114.351 778.22 114.843C777.73 115.334 777.073 115.623 776.38 115.65H766.63C765.939 115.62 765.284 115.331 764.796 114.84C764.309 114.348 764.025 113.691 764 113V62.7299Z" fill="#0A2A66"/>
<path d="M854.52 63.6899C853.8 61.7699 854.76 60.0799 856.92 60.0799H868.47C868.974 60.0312 869.479 60.162 869.896 60.4492C870.313 60.7364 870.616 61.1616 870.75 61.6499L880.75 94.8399H881L893.6 61.6499C894.44 60.1999 895.4 60.0799 897.09 60.0799H907.31C907.755 60.031 908.205 60.1053 908.61 60.2949C909.016 60.4844 909.361 60.7817 909.609 61.1544C909.857 61.5271 909.997 61.9608 910.015 62.408C910.033 62.8552 909.927 63.2987 909.71 63.6899L877 142.58C876.791 143.054 876.455 143.461 876.03 143.757C875.605 144.053 875.107 144.227 874.59 144.26H863.06C862.605 144.3 862.147 144.216 861.737 144.015C861.326 143.815 860.978 143.506 860.73 143.122C860.482 142.738 860.343 142.294 860.329 141.837C860.315 141.38 860.426 140.928 860.65 140.53L871.83 112.39L854.52 63.6899Z" fill="#0A2A66"/>
</g>
<defs>
<clipPath id="clip0_234_44">
<rect width="910" height="148" fill="white"/>
</clipPath>
</defs>
</svg>

<svg xmlns="http://www.w3.org/2000/svg" viewBox="0 0 910 148">
  <path d="M4.18,33.35C1.2,34.85,0,37.26,0,40.55v67.12c0,3.29,1.2,5.4,4.18,7.2l56.64,32.26a9.38,9.38,0,0,0,8.36,0l56.64-32.26c3-1.8,4.18-3.91,4.18-7.2V40.55c0-3.89-1.81-6-4.18-7.2L69.18,1.09a9.38,9.38,0,0,0-8.36,0Z" fill='#14bf96'/>
  <g fill='#fff'>
    <path d="M114.73,60.05c-26.88.14-48.64,22.71-48.64,50.55v1.18H64V110.6C64,82.76,42.2,60.19,15.27,60.05A52.06,52.06,0,0,0,15,65.37c0,21.77,13.33,40.33,32,47.45A51.24,51.24,0,0,0,65,116.05,52,52,0,0,0,83,112.82c18.66-7.12,32-25.68,32-47.45A52.06,52.06,0,0,0,114.73,60.05Z"/>
    <circle cx="65" cy="47.29" r="16" transform="translate(-14.4 59.81) rotate(-45)"/>
  </g>
  <g fill='#0a2a66'>
    <path d="M166.07,34.35A2.85,2.85,0,0,1,169,31.46h10.58a2.92,2.92,0,0,1,2.89,2.89V66.82l30.3-34.16a2.89,2.89,0,0,1,2.29-1.2h12A2.56,2.56,0,0,1,229,35.79L197.58,71.15l33.67,40.28a2.64,2.64,0,0,1-2.16,4.21H216a2.6,2.6,0,0,1-2.16-.84L182.43,76.08v36.67a2.92,2.92,0,0,1-2.89,2.89H169a2.85,2.85,0,0,1-2.89-2.89Z"/>
    <path d="M240,34.11a2.84,2.84,0,0,1,2.65-2.65h9.74a2.75,2.75,0,0,1,2.64,2.65V63.57c2.77-2.41,7.58-4.69,14.19-4.69,17.68,0,22.49,12.27,22.49,26.22V113a2.75,2.75,0,0,1-2.65,2.65h-9.74a2.67,2.67,0,0,1-2.64-2.65V85c0-7.69-3.49-12.38-10.1-12.38s-10.11,4.09-11.55,9.74V113c0,1.57-.72,2.65-2.88,2.65h-9.5A2.75,2.75,0,0,1,240,113Z"/>
    <path d="M322.28,80.53A40.83,40.83,0,0,1,333,82.09c.24-7.1-1.8-10.46-7.69-10.46a69.78,69.78,0,0,0-15.64,2c-1.8.6-2.88-.72-3.12-2.4L305.33,65a2.52,2.52,0,0,1,1.8-3.36,69.71,69.71,0,0,1,19-2.77c17.32,0,20.92,9,20.92,24.17V113a2.67,2.67,0,0,1-2.64,2.65h-4.09c-1,0-1.68-.36-2.41-1.92L336.35,110a24.36,24.36,0,0,1-17.44,7c-11.06,0-18.76-7.09-18.76-19C300.15,88.1,308.21,80.53,322.28,80.53Zm.36,25.25c4.93,0,9.26-3.85,10-5.89V91.71A22.19,22.19,0,0,0,324.45,90c-6.38,0-9.87,3-9.87,7.93C314.58,102.65,317.47,105.78,322.64,105.78Z"/>
    <path d="M359.56,62.73a2.66,2.66,0,0,1,2.64-2.65h4.57a2.13,2.13,0,0,1,2.29,1.69l2,5.17A22.43,22.43,0,0,1,389,58.88c17.68,0,22.25,11.9,22.25,25.37V113a2.76,2.76,0,0,1-2.65,2.65h-9.74a2.67,2.67,0,0,1-2.64-2.65V84.25c0-7.21-2.89-11.66-9.62-11.66a12.23,12.23,0,0,0-12,8.66V113c0,2.05-.84,2.65-3.49,2.65h-8.9a2.75,2.75,0,0,1-2.64-2.65Z"/>
    <path d="M439.69,112.51l37.4-80.93a2.16,2.16,0,0,1,2-1.32h1.21a2,2,0,0,1,2,1.32l37,80.93a2.12,2.12,0,0,1-2,3.13H506.91c-1.8,0-2.64-.72-3.48-2.41l-5.9-13H461.58l-5.89,13a3.63,3.63,0,0,1-3.49,2.41H441.74A2.13,2.13,0,0,1,439.69,112.51ZM491.64,86.9l-12-26.46h-.36L467.47,86.9Z"/>
    <path d="M550.37,58.88c8.66,0,15.39,3.73,20.68,9.38,1.2,1.2.6,2.77-.6,4l-5.05,5.53c-1.2,1.32-2.52.72-3.61-.36-2.64-2.53-5.89-4.81-11.06-4.81-8.66,0-14.67,6.73-14.67,15.27s5.89,15.39,14.55,15.39c6.13,0,9.38-3.36,11.78-6.13a2.61,2.61,0,0,1,3.49-.36l5.41,4.57c1.33,1.2,1.93,2.52,1,4-4.69,7.33-12.14,11.66-22,11.66-16.24,0-29.34-12.38-29.34-29.1C520.91,71.51,533.89,58.88,550.37,58.88Z"/>
    <path d="M601.82,80.53a40.83,40.83,0,0,1,10.7,1.56c.24-7.1-1.8-10.46-7.69-10.46a69.78,69.78,0,0,0-15.64,2c-1.8.6-2.88-.72-3.12-2.4L584.86,65a2.53,2.53,0,0,1,1.81-3.36,69.71,69.71,0,0,1,19-2.77c17.32,0,20.92,9,20.92,24.17V113a2.67,2.67,0,0,1-2.64,2.65h-4.09c-1,0-1.69-.36-2.41-1.92L615.89,110a24.36,24.36,0,0,1-17.44,7c-11.06,0-18.76-7.09-18.76-19C579.69,88.1,587.75,80.53,601.82,80.53Zm.36,25.25c4.93,0,9.26-3.85,10-5.89V91.71A22.21,22.21,0,0,0,604,90c-6.37,0-9.86,3-9.86,7.93C594.12,102.65,597,105.78,602.18,105.78Z"/>
    <path d="M663.56,58.88a41.4,41.4,0,0,1,13.35,2.28v-27a2.84,2.84,0,0,1,2.65-2.65h9.74a2.75,2.75,0,0,1,2.64,2.65V113a2.67,2.67,0,0,1-2.64,2.65h-4.45c-1.33,0-2.17-1.08-2.65-2.65l-1.44-4.33A24,24,0,0,1,662.6,117C647.45,117,636,104.7,636,87.86,636,71.63,647,58.88,663.56,58.88Zm13.35,16.84a22,22,0,0,0-11.54-3.13c-9.14,0-13.83,7.45-13.83,15.27s4.45,15.39,13.1,15.39c7.22,0,11.07-4.57,12.27-7.69Z"/>
    <path d="M729.58,58.88c14.43,0,25.49,10.7,25.49,25.73,0,.85-.12,2.77-.24,3.61a2.83,2.83,0,0,1-2.64,2.53h-35.6c.12,6.85,5.77,12.86,13.83,12.86a18.46,18.46,0,0,0,11.91-4.08c1.32-1.09,2.76-1.21,3.6,0l4.69,6.25a2.33,2.33,0,0,1-.24,3.61A31.4,31.4,0,0,1,729.7,117c-16.6,0-28.14-13.23-28.14-29.1C701.56,72.23,713.1,58.88,729.58,58.88Zm10.34,22c-.24-5.42-4.57-9.62-10.7-9.62-6.74,0-11.06,4.08-11.79,9.62Z"/>
    <path d="M764,62.73a2.66,2.66,0,0,1,2.64-2.65h4.33a2.15,2.15,0,0,1,2.29,1.57l2,5.29a21.13,21.13,0,0,1,17-8.06c8.06,0,12,2.89,16.59,8.42,2.41-2.53,7.94-8.42,17.92-8.42,17.8,0,22,11.3,22,25.73V113a2.7,2.7,0,0,1-2.77,2.65h-9.62a2.67,2.67,0,0,1-2.64-2.65V84.25c0-7.21-2.65-11.66-9.62-11.66-8.06,0-10.35,5.77-10.35,5.77s.24,2.77.24,5.29V113a2.75,2.75,0,0,1-2.64,2.65h-9.86a2.59,2.59,0,0,1-2.65-2.65V84.25c0-7.21-2-11.66-9.14-11.66-6.85,0-9.38,4.81-10.7,8.66V113a2.75,2.75,0,0,1-2.64,2.65h-9.75A2.75,2.75,0,0,1,764,113Z"/>
    <path d="M854.52,63.69c-.72-1.92.24-3.61,2.4-3.61h11.55a2.15,2.15,0,0,1,2.28,1.57l10,33.19H881L893.6,61.65c.84-1.45,1.8-1.57,3.49-1.57h10.22a2.44,2.44,0,0,1,2.4,3.61L877,142.58a2.83,2.83,0,0,1-2.41,1.68H863.06a2.51,2.51,0,0,1-2.41-3.73l11.18-28.14Z"/>
  </g>
</svg>
